packages/icons/src/svg/file-s3-o.svg

<svg xmlns="http://www.w3.org/2000/svg" viewBox="0 0 16 15">
  <g fill-rule="evenodd">
    <path fill-rule="nonzero" d="M14.6182 10.9819L14.6182 10.9819C15.3992 10.5919 15.7892 10.0719 15.7892 9.3559 15.7892 7.9899 14.7492 7.2749 13.1232 7.2749 12.2122 7.2749 11.4312 7.5999 10.7162 8.2509L11.6912 9.4859C12.1472 9.0959 12.5372 8.9009 12.9922 8.9009 13.5132 8.9009 13.7732 9.1609 13.7732 9.5509 13.7732 10.0719 13.3832 10.3969 12.1472 10.3969L12.1472 11.8279C13.7082 11.8279 13.9682 12.1529 13.9682 12.7379 13.9682 13.1929 13.5782 13.4539 12.8622 13.4539 12.3422 13.4539 11.8212 13.1929 11.3662 12.7379L10.4562 13.9739C11.0412 14.6249 11.8872 15.0149 13.1232 15.0149 14.6832 15.0149 15.9842 14.2339 15.9842 12.8679 15.9842 11.8279 15.3992 11.2419 14.6182 10.9819M8.375 10.3969L7.464 10.0719C6.749 9.8119 6.358 9.6809 6.358 9.2909 6.358 8.9659 6.684 8.7709 7.139 8.7709 7.725 8.7709 8.114 8.9659 8.635 9.2909L9.61 8.0549C8.895 7.3399 7.919 7.0149 7.074 7.0149 5.383 7.0149 4.212 8.0549 4.212 9.3559 4.212 10.4619 4.928 11.1769 5.773 11.5019L6.749 11.8929C7.399 12.1529 7.789 12.2829 7.789 12.6079 7.789 12.9329 7.529 13.1279 6.943 13.1279 6.358 13.1279 5.708 12.8029 5.187 12.4129L4.017 13.7789C4.862 14.4939 5.968 14.8849 6.879 14.8849 8.765 14.8849 9.87 13.7139 9.87 12.4779 9.87 11.4379 9.351 10.7869 8.375 10.3969M10.5234 3.9409C10.8764 4.3089 11.3644 4.5569 11.8814 4.5569 12.5274 4.5569 12.9104 4.2339 12.9104 3.7539 12.9104 3.2509 12.5504 3.0929 12.0854 2.8829L11.3784 2.5749C10.9204 2.3789 10.3804 2.0269 10.3804 1.3059 10.3804.5549 11.0414-.0001 11.9344-.0001 12.5204-.0001 13.0384.2479 13.3834.6079L13.0534 1.0129C12.7524.7279 12.3844.5479 11.9344.5479 11.3784.5479 11.0114.8259 11.0114 1.2689 11.0114 1.7409 11.4464 1.9219 11.8304 2.0869L12.5354 2.3869C13.1054 2.6349 13.5484 2.9729 13.5484 3.7009 13.5484 4.4819 12.9034 5.1049 11.8674 5.1049 11.1764 5.1049 10.5764 4.8189 10.1484 4.3769L10.5234 3.9409zM4.1855.0898L4.8315.0898 5.3485 2.7698C5.4465 3.3028 5.5435 3.8288 5.6415 4.3608L5.6715 4.3608C5.7775 3.8288 5.8965 3.2958 6.0175 2.7698L6.7005.0898 7.2705.0898 7.9545 2.7698C8.0665 3.2878 8.1865 3.8288 8.3065 4.3608L8.3365 4.3608C8.4345 3.8288 8.5245 3.2958 8.6145 2.7698L9.1325.0898 9.7405.0898 8.7195 5.0148 7.9615 5.0148 7.2185 2.0488C7.1355 1.6668 7.0525 1.3138 6.9855.9308L6.9555.9308C6.8735 1.3138 6.7895 1.6668 6.7075 2.0488L5.9715 5.0148 5.2285 5.0148 4.1855.0898zM2.905 3.5132L1.111 3.5132.638 5.0142 0 5.0142 1.667.0902 2.372.0902 4.039 5.0142 3.378 5.0142 2.905 3.5132zM2.748 3.0102L2.515 2.2592C2.342 1.7112 2.185 1.1712 2.027.6002L1.997.6002C1.839 1.1712 1.682 1.7112 1.509 2.2592L1.269 3.0102 2.748 3.0102z"/>
  </g>
</svg>

<svg xmlns="http://www.w3.org/2000/svg" viewBox="0 0 16 15">
	<path d="M14.618 10.982c.781-.39 1.171-.91 1.171-1.626 0-1.366-1.04-2.081-2.666-2.081-.91 0-1.692.325-2.407.976l.975 1.235c.456-.39.846-.585 1.301-.585.521 0 .781.26.781.65 0 .52-.39.846-1.626.846v1.43c1.561 0 1.821.326 1.821.91 0 .456-.39.717-1.106.717-.52 0-1.04-.261-1.496-.716l-.91 1.236c.585.65 1.431 1.04 2.667 1.04 1.56 0 2.861-.78 2.861-2.146 0-1.04-.585-1.626-1.366-1.886m-6.243-.585l-.911-.325c-.715-.26-1.106-.391-1.106-.781 0-.325.326-.52.781-.52.586 0 .975.195 1.496.52l.975-1.236c-.715-.715-1.691-1.04-2.536-1.04-1.691 0-2.862 1.04-2.862 2.34 0 1.107.716 1.822 1.561 2.147l.976.39c.65.26 1.04.39 1.04.716 0 .325-.26.52-.846.52-.585 0-1.235-.325-1.756-.715l-1.17 1.366c.845.715 1.951 1.106 2.862 1.106 1.886 0 2.991-1.171 2.991-2.407 0-1.04-.519-1.691-1.495-2.081m2.148-6.456c.353.368.841.616 1.358.616.646 0 1.03-.323 1.03-.803 0-.503-.36-.661-.826-.871l-.707-.308c-.458-.196-.998-.548-.998-1.27 0-.75.661-1.305 1.554-1.305.586 0 1.104.248 1.45.608l-.33.405c-.302-.285-.67-.465-1.12-.465-.556 0-.923.278-.923.72 0 .473.435.654.82.819l.704.3c.57.248 1.013.586 1.013 1.314 0 .78-.645 1.404-1.68 1.404a2.374 2.374 0 0 1-1.72-.728l.375-.436zM4.186.09h.646l.516 2.68.293 1.59h.03c.106-.531.225-1.064.346-1.59L6.7.09h.57l.685 2.68c.111.518.232 1.059.351 1.59h.03c.098-.531.188-1.064.278-1.59L9.133.09h.609L8.72 5.015h-.76l-.743-2.966c-.082-.382-.165-.735-.232-1.118h-.03c-.083.383-.167.736-.249 1.118L5.97 5.015h-.74L4.186.09zM2.905 3.513H1.111L.638 5.014H0L1.667.09h.705l1.667 4.924h-.661l-.473-1.5zm-.157-.503l-.233-.75A47.739 47.739 0 0 1 2.027.6h-.03a47.739 47.739 0 0 1-.488 1.66l-.24.75h1.479z"/>
</svg>
